src/assets/img/Filter.svg

<svg width="41" height="41" viewBox="0 0 41 41" fill="none" xmlns="http://www.w3.org/2000/svg">
<rect x="0.987793" y="0.751282" width="40" height="40" fill="white"/>
<path fill-rule="evenodd" clip-rule="evenodd" d="M2.98779 7.06268C2.43551 7.06268 1.98779 7.5104 1.98779 8.06268C1.98779 8.61497 2.43551 9.06268 2.98779 9.06268H3.9104V13.1262C3.9104 13.8993 4.20892 14.6427 4.74369 15.2011L17.4993 28.5209C17.6776 28.707 17.7771 28.9548 17.7771 29.2125V35.8627C17.7771 36.9673 18.6725 37.8627 19.7771 37.8627H22.0437C23.1483 37.8627 24.0437 36.9673 24.0437 35.8627V29.2125C24.0437 28.9548 24.1432 28.707 24.3215 28.5209L37.0771 15.2011C37.6119 14.6427 37.9104 13.8993 37.9104 13.1262V9.06268H38.9878C39.5401 9.06268 39.9878 8.61497 39.9878 8.06268C39.9878 7.5104 39.5401 7.06268 38.9878 7.06268H36.9104H4.9104H2.98779ZM5.9104 13.1262V9.06268H35.9104V13.1262C35.9104 13.3839 35.8109 13.6317 35.6326 13.8178L34.9658 14.5141C30.763 14.3635 27.1195 15.0264 23.7575 15.6381C22.6755 15.8349 21.6226 16.0264 20.5897 16.1839C16.3144 16.8354 12.1733 16.9623 7.08481 14.7541L6.18817 13.8178C6.00991 13.6317 5.9104 13.3839 5.9104 13.1262ZM10.0993 17.9019L18.9438 27.1376C19.4786 27.696 19.7771 28.4394 19.7771 29.2125V35.8627H22.0437V29.2125C22.0437 28.4394 22.3423 27.696 22.877 27.1376L33.0657 16.4983C29.8794 16.5617 27.0567 17.0744 24.2603 17.5822C23.1402 17.7857 22.0243 17.9883 20.891 18.161C17.4723 18.682 14.0118 18.8964 10.0993 17.9019Z" fill="#5E6E7C"/>
</svg>

<?xml version="1.0" encoding="utf-8"?>
<!-- Generator: Adobe Illustrator 25.2.3, SVG Export Plug-In . SVG Version: 6.00 Build 0)  -->
<svg version="1.1" id="Layer_1" xmlns="http://www.w3.org/2000/svg" xmlns:xlink="http://www.w3.org/1999/xlink" x="0px" y="0px"
	 viewBox="0 0 41 41" style="enable-background:new 0 0 41 41;" xml:space="preserve">
<style type="text/css">
	.st0{fill-rule:evenodd;clip-rule:evenodd;fill:#FFFFFF;}
</style>
<path class="st0" d="M3,7.1c-0.6,0-1,0.4-1,1c0,0.6,0.4,1,1,1h0.9v4.1c0,0.8,0.3,1.5,0.8,2.1l12.8,13.3c0.2,0.2,0.3,0.4,0.3,0.7v6.7
	c0,1.1,0.9,2,2,2H22c1.1,0,2-0.9,2-2v-6.7c0-0.3,0.1-0.5,0.3-0.7l12.8-13.3c0.5-0.6,0.8-1.3,0.8-2.1V9.1H39c0.6,0,1-0.4,1-1
	c0-0.6-0.4-1-1-1h-2.1h-32H3z M5.9,13.1V9.1h30v4.1c0,0.3-0.1,0.5-0.3,0.7L35,14.5c-4.2-0.2-7.8,0.5-11.2,1.1
	c-1.1,0.2-2.1,0.4-3.2,0.5c-4.3,0.7-8.4,0.8-13.5-1.4l-0.9-0.9C6,13.6,5.9,13.4,5.9,13.1z M10.1,17.9l8.8,9.2
	c0.5,0.6,0.8,1.3,0.8,2.1v6.7H22v-6.7c0-0.8,0.3-1.5,0.8-2.1l10.2-10.6c-3.2,0.1-6,0.6-8.8,1.1c-1.1,0.2-2.2,0.4-3.4,0.6
	C17.5,18.7,14,18.9,10.1,17.9z"/>
</svg>
